icons/receiptmanager.svg

<?xml version="1.0" encoding="utf-8"?>
<!-- Generator: Adobe Illustrator 25.1.0, SVG Export Plug-In . SVG Version: 6.00 Build 0)  -->
<svg version="1.1"
	 id="svg8" inkscape:version="1.0.1 (3bc2e813f5, 2020-09-07)" sodipodi:docname="template.svg" xmlns:cc="http://creativecommons.org/ns#" xmlns:dc="http://purl.org/dc/elements/1.1/" xmlns:inkscape="http://www.inkscape.org/namespaces/inkscape" xmlns:rdf="http://www.w3.org/1999/02/22-rdf-syntax-ns#" xmlns:sodipodi="http://sodipodi.sourceforge.net/DTD/sodipodi-0.dtd" xmlns:svg="http://www.w3.org/2000/svg"
	 xmlns="http://www.w3.org/2000/svg" xmlns:xlink="http://www.w3.org/1999/xlink" x="0px" y="0px" viewBox="0 0 48 48"
	 style="enable-background:new 0 0 48 48;" xml:space="preserve">
<style type="text/css">
	.st0{fill:none;stroke:#FFFFFF;stroke-linecap:round;stroke-linejoin:round;}
</style>
<sodipodi:namedview  bordercolor="#666666" borderopacity="1" gridtolerance="10" guidetolerance="10" id="namedview10" inkscape:current-layer="svg8" inkscape:cx="13.020358" inkscape:cy="24.273018" inkscape:document-rotation="0" inkscape:guide-bbox="true" inkscape:pageopacity="0" inkscape:pageshadow="2" inkscape:window-height="2098" inkscape:window-maximized="1" inkscape:window-width="3840" inkscape:window-x="0" inkscape:window-y="25" inkscape:zoom="4.6643592" objecttolerance="10" pagecolor="#595959" showgrid="false" showguides="true">
	</sodipodi:namedview>
<g>
	<rect id="rect3397" x="18.7" y="14.4" class="st0" width="10.7" height="2.7"/>
	<rect id="rect3397-0" x="18.7" y="20.5" class="st0" width="10.7" height="2.7"/>
	<rect id="rect3397-5" x="32.8" y="14.4" class="st0" width="2.6" height="2.7"/>
	<rect id="rect3397-5-9" x="32.8" y="20.5" class="st0" width="2.6" height="2.7"/>
	<path id="path3435" sodipodi:nodetypes="cccccccccccccccccc" class="st0" d="M12.6,5.3v27.5H6.5V39c0,1.8,2,4.5,4.1,4.5h26
		c2.4,0,4.8-2.2,4.9-4.9V5.3l-2.3,2.4l-3-3.2l-3.1,3.2l-3-3.2l-3.1,3.2l-3-3.2l-3,3.2l-3.1-3.2l-3.1,3.2L12.6,5.3z"/>
	<path id="path3439" sodipodi:nodetypes="ccccsscc" class="st0" d="M12.6,32.8h2.6V10.6h23.7v27.3c0,3.9-5.4,4.1-5.4,0v-5.1
		L12.6,32.8"/>
</g>
</svg>

<svg xmlns="http://www.w3.org/2000/svg" viewBox="0 0 48 48"><defs><style>.a{fill:none;stroke:#fff;stroke-linecap:round;stroke-linejoin:round;}</style></defs><rect class="a" x="18.7" y="14.4" width="10.7" height="2.7"/><rect class="a" x="18.7" y="20.5" width="10.7" height="2.7"/><rect class="a" x="32.8" y="14.4" width="2.6" height="2.7"/><rect class="a" x="32.8" y="20.5" width="2.6" height="2.7"/><path class="a" d="M12.6,5.3V32.8H6.5V39c0,1.8,2,4.5,4.1,4.5h26a5.19,5.19,0,0,0,4.9-4.9V5.3L39.2,7.7l-3-3.2L33.1,7.7l-3-3.2L27,7.7,24,4.5,21,7.7,17.9,4.5,14.8,7.7Z"/><path class="a" d="M12.6,32.8h2.6V10.6H38.9V37.9c0,3.9-5.4,4.1-5.4,0V32.8H12.6"/></svg>
